img/fitbit.svg

<svg width="96" height="25" viewBox="0 0 96 25" fill="none" xmlns="http://www.w3.org/2000/svg">
<path fill-rule="evenodd" clip-rule="evenodd" d="M14.016 1.83962C14.016 2.83019 13.152 3.67925 12.144 3.67925C11.136 3.67925 10.272 2.83019 10.272 1.83962C10.272 0.849057 11.136 0 12.144 0C13.152 0 14.016 0.849057 14.016 1.83962ZM12.144 5.18868C11.04 5.18868 10.176 6.03774 10.176 7.12264C10.176 8.20755 11.04 9.0566 12.144 9.0566C13.248 9.0566 14.112 8.20755 14.112 7.12264C14.112 5.99057 13.248 5.18868 12.144 5.18868ZM10.128 12.3113C10.128 11.2264 11.04 10.3302 12.144 10.3302C13.248 10.3302 14.208 11.2264 14.16 12.3113C14.16 13.3962 13.248 14.2925 12.144 14.2925C11.04 14.2925 10.128 13.3962 10.128 12.3113ZM12.144 15.566C11.04 15.566 10.176 16.4151 10.176 17.5C10.176 18.5849 11.04 19.434 12.144 19.434C13.248 19.434 14.112 18.5849 14.112 17.5C14.112 16.4623 13.248 15.566 12.144 15.566ZM10.272 22.7358C10.272 21.7453 11.136 20.8962 12.144 20.8962C13.2 20.8962 14.016 21.7453 14.016 22.7358C14.016 23.7264 13.152 24.5755 12.144 24.5755C11.136 24.5755 10.272 23.7264 10.272 22.7358ZM17.328 4.95283C16.128 4.95283 15.12 5.9434 15.12 7.12264C15.12 8.30189 16.128 9.29245 17.328 9.29245C18.528 9.29245 19.536 8.30189 19.536 7.12264C19.536 5.9434 18.528 4.95283 17.328 4.95283ZM15.024 12.3585C15.024 11.0849 16.08 10.0943 17.328 10.0943C18.576 10.0943 19.632 11.0849 19.632 12.3585C19.632 13.6321 18.576 14.6226 17.328 14.6226C16.032 14.6226 15.024 13.5849 15.024 12.3585ZM17.328 15.3302C16.128 15.3302 15.12 16.3208 15.12 17.5C15.12 18.6792 16.128 19.6698 17.328 19.6698C18.528 19.6698 19.536 18.6792 19.536 17.5C19.536 16.3208 18.528 15.3302 17.328 15.3302ZM20.112 12.3113C20.112 10.8962 21.312 9.81132 22.656 9.81132C24 9.81132 25.104 10.8962 25.2 12.3113C25.2 13.7264 24.096 14.8113 22.656 14.8113C21.216 14.8113 20.112 13.6321 20.112 12.3113ZM6.912 5.42453C6 5.42453 5.232 6.17924 5.232 7.07547C5.232 7.9717 6 8.72641 6.912 8.72641C7.824 8.72641 8.592 7.9717 8.592 7.07547C8.592 6.17924 7.872 5.42453 6.912 5.42453ZM5.136 12.3113C5.136 11.3208 5.904 10.566 6.912 10.566C7.92 10.566 8.688 11.3208 8.688 12.3113C8.688 13.3019 7.92 14.0566 6.912 14.0566C5.904 14.0566 5.136 13.3019 5.136 12.3113ZM6.912 15.8019C6 15.8019 5.232 16.5566 5.232 17.4528C5.232 18.3491 6 19.1038 6.912 19.1038C7.824 19.1038 8.592 18.3491 8.592 17.4528C8.592 16.5566 7.872 15.8019 6.912 15.8019ZM0.143997 12.3585C0.143997 11.5094 0.815997 10.8491 1.68 10.8491C2.544 10.8491 3.216 11.5094 3.216 12.3585C3.216 13.2075 2.544 13.8679 1.68 13.8679C0.815997 13.8679 0.143997 13.2075 0.143997 12.3585Z" fill="white"/>
<path d="M44.304 9.10388C44.112 9.10388 43.968 9.29256 43.968 9.43407V22.5001C43.968 22.6888 44.16 22.8303 44.304 22.8303H45.888C46.08 22.8303 46.224 22.6416 46.224 22.5001V9.43407C46.224 9.24539 46.032 9.10388 45.888 9.10388H44.304Z" fill="white"/>
<path d="M45.168 3.58496C44.304 3.58496 43.632 4.24534 43.632 5.09439C43.632 5.94345 44.304 6.60383 45.168 6.60383C46.032 6.60383 46.704 5.94345 46.704 5.09439C46.704 4.24534 45.984 3.58496 45.168 3.58496Z" fill="white"/>
<path d="M78.384 9.10388C78.192 9.10388 78.048 9.29256 78.048 9.43407V22.5001C78.048 22.6888 78.24 22.8303 78.384 22.8303H79.968C80.16 22.8303 80.304 22.6416 80.304 22.5001V9.43407C80.304 9.24539 80.112 9.10388 79.968 9.10388H78.384Z" fill="white"/>
<path d="M79.152 3.58496C78.288 3.58496 77.616 4.24534 77.616 5.09439C77.616 5.94345 78.288 6.60383 79.152 6.60383C80.016 6.60383 80.688 5.94345 80.688 5.09439C80.688 4.24534 80.016 3.58496 79.152 3.58496Z" fill="white"/>
<path fill-rule="evenodd" clip-rule="evenodd" d="M95.359 21.3997C95.3491 21.4456 95.3249 21.5012 95.266 21.5567C95.266 21.651 95.166 21.7454 94.966 21.6982L95.0426 21.7865C95.0326 21.7903 95.0237 21.7926 95.016 21.7926H94.866L95.216 22.2171H95.416L95.0426 21.7865C95.0592 21.7801 95.0788 21.7693 95.1003 21.7574C95.1488 21.7306 95.2074 21.6982 95.266 21.6982C95.366 21.6982 95.366 21.6039 95.366 21.5095C95.366 21.4707 95.366 21.4319 95.359 21.3997ZM94.666 21.7926V21.651V21.2265H95.016C95.116 21.2265 95.216 21.2265 95.266 21.3209C95.3249 21.3209 95.3491 21.3536 95.359 21.3997C95.366 21.3676 95.366 21.3403 95.366 21.3209V21.2265C95.366 21.2265 95.366 21.1322 95.266 21.1322C95.266 21.1322 95.166 21.0378 95.066 21.0378H94.866H94.416V22.2171H94.616V21.7926H94.666Z" fill="#8C98A4"/>
<path fill-rule="evenodd" clip-rule="evenodd" d="M93.792 21.6509C93.792 21.0849 94.32 20.566 94.896 20.566C95.52 20.566 96 21.0377 96 21.6509C96 22.217 95.472 22.7359 94.896 22.7359C94.32 22.7359 93.792 22.217 93.792 21.6509ZM93.888 21.6509C93.888 22.217 94.32 22.6415 94.896 22.6415C95.424 22.6415 95.904 22.217 95.904 21.6509C95.904 21.0849 95.472 20.6604 94.896 20.6604C94.32 20.6604 93.888 21.0849 93.888 21.6509Z" fill="#8C98A4"/>
<path d="M57.504 11.2265C57.696 11.2265 57.84 11.0378 57.84 10.8963V9.3397C57.84 9.15102 57.648 9.00951 57.504 9.00951H54.096V4.00951C54.096 3.82083 53.904 3.67932 53.76 3.67932H52.176C51.984 3.67932 51.84 3.868 51.84 4.00951V9.00951H50.16C49.968 9.00951 49.824 9.19819 49.824 9.3397V10.8963C49.824 11.085 50.016 11.2265 50.16 11.2265H51.84V18.7737C51.84 21.085 53.424 22.5944 55.728 22.5944H57.408C57.6 22.5944 57.744 22.4057 57.744 22.2642V20.7076C57.744 20.5189 57.552 20.3774 57.408 20.3774H55.968C54.864 20.3774 54.096 19.6227 54.096 18.4435V11.1793H57.504V11.2265Z" fill="white"/>
<path d="M91.2 11.2265C91.392 11.2265 91.536 11.0378 91.536 10.8963V9.3397C91.536 9.15102 91.344 9.00951 91.2 9.00951H87.792V4.00951C87.792 3.82083 87.6 3.67932 87.456 3.67932H85.872C85.68 3.67932 85.536 3.868 85.536 4.00951V9.00951H83.856C83.664 9.00951 83.52 9.19819 83.52 9.3397V10.8963C83.52 11.085 83.712 11.2265 83.856 11.2265H85.536V18.7737C85.536 21.085 87.12 22.5944 89.424 22.5944H91.104C91.296 22.5944 91.44 22.4057 91.44 22.2642V20.7076C91.44 20.5189 91.248 20.3774 91.104 20.3774H89.568C88.464 20.3774 87.696 19.6227 87.696 18.4435V11.1793H91.152L91.2 11.2265Z" fill="white"/>
<path d="M34.224 11.2265V22.3585C34.224 22.5472 34.416 22.6887 34.56 22.6887H36.144C36.336 22.6887 36.48 22.5 36.48 22.3585V11.2265H40.224C40.416 11.2265 40.56 11.0378 40.56 10.8963V9.33967C40.56 9.15099 40.368 9.00948 40.224 9.00948H36.48V6.08495C36.48 4.90571 37.344 4.10382 38.352 4.10382H40.224C40.416 4.10382 40.56 3.91514 40.56 3.77363V2.21703C40.56 2.02835 40.368 1.88684 40.224 1.88684H38.448C36.096 1.88684 34.224 3.8208 34.224 6.03778V9.00948H32.544C32.352 9.00948 32.208 9.19816 32.208 9.33967V10.8963C32.208 11.085 32.4 11.2265 32.544 11.2265H34.224Z" fill="white"/>
<path fill-rule="evenodd" clip-rule="evenodd" d="M68.112 8.58493C69.984 8.58493 71.76 9.33965 73.008 10.6604C74.256 11.9812 74.928 13.8208 74.928 15.8491C74.928 20.8963 71.424 23.1604 68.064 23.1604C64.656 23.1604 61.2 20.9434 61.2 15.8491V2.12267C61.2 1.98116 61.344 1.79248 61.536 1.79248H63.12C63.264 1.79248 63.456 1.93399 63.456 2.12267V10.4246C64.56 9.33965 66.336 8.58493 68.112 8.58493ZM63.408 15.8963C63.408 18.3963 64.656 21.0378 68.064 21.0378C71.472 21.0378 72.672 18.3963 72.72 15.8963C72.72 12.8774 70.848 10.8019 68.064 10.8019C65.28 10.8019 63.408 12.8302 63.408 15.8963Z" fill="white"/>
</svg>

<svg width="96" height="25" fill="none" xmlns="http://www.w3.org/2000/svg"><path fill-rule="evenodd" clip-rule="evenodd" d="M14.016 1.84c0 .99-.864 1.84-1.872 1.84s-1.872-.85-1.872-1.84c0-.99.864-1.84 1.872-1.84s1.872.85 1.872 1.84Zm-1.872 3.349c-1.104 0-1.968.849-1.968 1.934s.864 1.934 1.968 1.934 1.968-.85 1.968-1.934c0-1.132-.864-1.934-1.968-1.934Zm-2.016 7.122c0-1.085.912-1.98 2.016-1.98s2.064.895 2.016 1.98c0 1.085-.912 1.982-2.016 1.982s-2.016-.897-2.016-1.982Zm2.016 3.255c-1.104 0-1.968.85-1.968 1.934 0 1.085.864 1.934 1.968 1.934s1.968-.85 1.968-1.934c0-1.038-.864-1.934-1.968-1.934Zm-1.872 7.17c0-.99.864-1.84 1.872-1.84 1.056 0 1.872.85 1.872 1.84 0 .99-.864 1.84-1.872 1.84s-1.872-.85-1.872-1.84Zm7.056-17.783c-1.2 0-2.208.99-2.208 2.17 0 1.179 1.008 2.17 2.208 2.17 1.2 0 2.208-.991 2.208-2.17 0-1.18-1.008-2.17-2.208-2.17Zm-2.304 7.405c0-1.273 1.056-2.264 2.304-2.264 1.248 0 2.304.99 2.304 2.264 0 1.274-1.056 2.265-2.304 2.265-1.296 0-2.304-1.038-2.304-2.264Zm2.304 2.972c-1.2 0-2.208.99-2.208 2.17s1.008 2.17 2.208 2.17c1.2 0 2.208-.99 2.208-2.17s-1.008-2.17-2.208-2.17Zm2.784-3.019c0-1.415 1.2-2.5 2.544-2.5s2.448 1.085 2.544 2.5c0 1.415-1.104 2.5-2.544 2.5s-2.544-1.179-2.544-2.5Zm-13.2-6.886c-.912 0-1.68.754-1.68 1.65 0 .897.768 1.651 1.68 1.651.912 0 1.68-.754 1.68-1.65 0-.897-.72-1.651-1.68-1.651ZM5.136 12.31c0-.99.768-1.745 1.776-1.745s1.776.755 1.776 1.745c0 .99-.768 1.746-1.776 1.746s-1.776-.755-1.776-1.746Zm1.776 3.49c-.912 0-1.68.756-1.68 1.652 0 .896.768 1.65 1.68 1.65.912 0 1.68-.754 1.68-1.65 0-.896-.72-1.651-1.68-1.651ZM.144 12.359c0-.849.672-1.509 1.536-1.509s1.536.66 1.536 1.51c0 .848-.672 1.509-1.536 1.509s-1.536-.66-1.536-1.51Z" fill="#fff"/><path d="M44.304 9.104c-.192 0-.336.189-.336.33V22.5c0 .189.192.33.336.33h1.584c.192 0 .336-.188.336-.33V9.434c0-.189-.192-.33-.336-.33h-1.584ZM45.168 3.585c-.864 0-1.536.66-1.536 1.51 0 .848.672 1.509 1.536 1.509s1.536-.66 1.536-1.51c0-.849-.72-1.509-1.536-1.509ZM78.384 9.104c-.192 0-.336.189-.336.33V22.5c0 .189.192.33.336.33h1.584c.192 0 .336-.188.336-.33V9.434c0-.189-.192-.33-.336-.33h-1.584ZM79.152 3.585c-.864 0-1.536.66-1.536 1.51 0 .848.672 1.509 1.536 1.509s1.536-.66 1.536-1.51c0-.849-.672-1.509-1.536-1.509Z" fill="#fff"/><path fill-rule="evenodd" clip-rule="evenodd" d="M95.359 21.4a.3.3 0 0 1-.093.157c0 .094-.1.188-.3.141l.077.088a.078.078 0 0 1-.027.007h-.15l.35.424h.2l-.373-.43a.512.512 0 0 0 .057-.03c.049-.026.107-.059.166-.059.1 0 .1-.094.1-.189 0-.038 0-.077-.007-.11Zm-.693.393v-.566h.35c.1 0 .2 0 .25.094.059 0 .083.033.093.079.007-.032.007-.06.007-.08v-.093s0-.095-.1-.095c0 0-.1-.094-.2-.094h-.65v1.18h.2v-.425h.05Z" fill="#8C98A4"/><path fill-rule="evenodd" clip-rule="evenodd" d="M93.792 21.65c0-.565.528-1.084 1.104-1.084.624 0 1.104.472 1.104 1.085 0 .566-.528 1.085-1.104 1.085-.576 0-1.104-.519-1.104-1.085Zm.096 0c0 .567.432.992 1.008.992.528 0 1.008-.425 1.008-.991 0-.566-.432-.99-1.008-.99-.576 0-1.008.424-1.008.99Z" fill="#8C98A4"/><path d="M57.504 11.226c.192 0 .336-.188.336-.33V9.34c0-.189-.192-.33-.336-.33h-3.408v-5c0-.19-.192-.33-.336-.33h-1.584c-.192 0-.336.188-.336.33v5h-1.68c-.192 0-.336.188-.336.33v1.556c0 .189.192.33.336.33h1.68v7.548c0 2.311 1.584 3.82 3.888 3.82h1.68c.192 0 .336-.188.336-.33v-1.556c0-.19-.192-.33-.336-.33h-1.44c-1.104 0-1.872-.755-1.872-1.934v-7.265h3.408v.047ZM91.2 11.226c.192 0 .336-.188.336-.33V9.34c0-.189-.192-.33-.336-.33h-3.408v-5c0-.19-.192-.33-.336-.33h-1.584c-.192 0-.336.188-.336.33v5h-1.68c-.192 0-.336.188-.336.33v1.556c0 .189.192.33.336.33h1.68v7.548c0 2.311 1.584 3.82 3.888 3.82h1.68c.192 0 .336-.188.336-.33v-1.556c0-.19-.192-.33-.336-.33h-1.536c-1.104 0-1.872-.755-1.872-1.934v-7.265h3.456l.048.047ZM34.224 11.226v11.132c0 .19.192.33.336.33h1.584c.192 0 .336-.188.336-.33V11.226h3.744c.192 0 .336-.188.336-.33V9.34c0-.189-.192-.33-.336-.33H36.48V6.084c0-1.18.864-1.981 1.872-1.981h1.872c.192 0 .336-.189.336-.33V2.217c0-.189-.192-.33-.336-.33h-1.776c-2.352 0-4.224 1.934-4.224 4.15V9.01h-1.68c-.192 0-.336.19-.336.33v1.557c0 .189.192.33.336.33h1.68Z" fill="#fff"/><path fill-rule="evenodd" clip-rule="evenodd" d="M68.112 8.585c1.872 0 3.648.755 4.896 2.075 1.248 1.321 1.92 3.16 1.92 5.19 0 5.046-3.504 7.31-6.864 7.31-3.408 0-6.864-2.217-6.864-7.31V2.122c0-.142.144-.33.336-.33h1.584c.144 0 .336.141.336.33v8.302c1.104-1.085 2.88-1.84 4.656-1.84Zm-4.704 7.311c0 2.5 1.248 5.142 4.656 5.142 3.408 0 4.608-2.642 4.656-5.142 0-3.019-1.872-5.094-4.656-5.094s-4.656 2.028-4.656 5.094Z" fill="#fff"/></svg>
